brandFactory_export/2.Regular/Insecto _2Regular.svg

<?xml version="1.0" encoding="UTF-8"?>
<svg width="24px" height="24px" viewBox="0 0 24 24" version="1.1" xmlns="http://www.w3.org/2000/svg" xmlns:xlink="http://www.w3.org/1999/xlink">
    <title>2.Regular/Insecto _2Regular</title>
    <g id="Symbols" stroke="none" stroke-width="1" fill="none" fill-rule="evenodd">
        <g id="2.Regular/Insecto-_2Regular" fill="#5CB615" fill-rule="nonzero">
            <path d="M9.86218487,20.810084 C14.0436975,20.810084 15.3176471,19.1260504 15.3176471,13.6 C15.3176471,10.1411765 14.7831933,8.25546218 13.5327731,7.30420168 C12.7226891,6.68571429 11.5226891,6.38655462 9.86218487,6.38655462 C8.18823529,6.38655462 6.97815126,6.69243697 6.16806723,7.3210084 C4.93109244,8.2789916 4.40672269,10.1546218 4.40672269,13.6 C4.40672269,19.1260504 5.68067227,20.810084 9.86218487,20.810084 L9.86218487,20.810084 Z M9.87226891,2.46722689 C6.58151261,2.46722689 6.00336134,3.18655462 6.00336134,4.69915966 C6.00336134,5.09915966 6.05378151,5.39495798 6.13109244,5.62689076 C7.10588235,5.14621849 8.33613445,4.91092437 9.86218487,4.91092437 C11.394958,4.91092437 12.6252101,5.15294118 13.6,5.63361345 C13.6773109,5.40504202 13.7378296,5.11596639 13.7378296,4.70252101 C13.7411765,3.18655462 13.1630252,2.46722689 9.87226891,2.46722689 Z M18.9747899,11.9092437 C19.3781513,11.9092437 19.7042017,12.2420168 19.7042017,12.6487395 L19.7042017,14.6218487 C19.7042017,15.0285714 19.3781513,15.3613445 18.9747899,15.3613445 C18.5714286,15.3613445 18.2453782,15.0285714 18.2453782,14.6218487 L18.2453782,13.3882353 L16.7764706,13.3882353 C16.7764706,13.4621849 16.7798319,13.5260504 16.7798319,13.6 C16.7798319,15.502521 16.6285714,17.1428571 16.1815126,18.4739496 L18.5512605,19.2033613 C18.8739496,19.3042017 19.0857143,19.610084 19.0689076,19.9495798 L18.9109244,22.9210084 C18.8907563,23.3142857 18.5680672,23.6201681 18.1815126,23.6201681 L18.1411765,23.6201681 C17.7378151,23.5966387 17.4285714,23.2504202 17.4487395,22.8436975 L17.5764706,20.4504202 L15.5529412,19.8285714 C14.5546218,21.4084034 12.8168067,22.2890756 9.85882353,22.2890756 C6.8907563,22.2890756 5.15294118,21.4016807 4.15798319,19.8151261 L2.08739496,20.4504202 L2.21512605,22.8436975 C2.23865546,23.2504202 1.92605042,23.6 1.52268908,23.6201681 L1.48235294,23.6201681 C1.09915966,23.6201681 0.776470588,23.3142857 0.752941176,22.9210084 L0.594957983,19.9495798 C0.578151261,19.610084 0.789915966,19.3008403 1.11260504,19.2033613 L3.53277311,18.4605042 C3.09243697,17.1327731 2.94117647,15.4957983 2.94117647,13.6 C2.94117647,13.5294118 2.94453782,13.4554622 2.94453782,13.3882353 L1.4789916,13.3882353 L1.4789916,14.6218487 C1.4789916,15.0285714 1.15294118,15.3613445 0.749579832,15.3613445 C0.346218487,15.3613445 0.0201680672,15.0285714 0.0201680672,14.6218487 L0.0201680672,12.6487395 C0.0201680672,12.2420168 0.346218487,11.9092437 0.749579832,11.9092437 L2.99495798,11.9092437 C3.08907563,10.3663866 3.3512605,8.84369748 4.0302521,7.62689076 L1.11596639,6.73277311 C0.793277311,6.63193277 0.581512605,6.32605042 0.598319328,5.98655462 L0.756302521,3.01512605 C0.779831933,2.60840336 1.12605042,2.28907563 1.52605042,2.31596639 C1.92941176,2.3394958 2.23865546,2.68571429 2.21848739,3.09243697 L2.0907563,5.48571429 L4.83361345,6.32941176 C4.64201681,5.86890756 4.54117647,5.33445378 4.54117647,4.70252101 C4.54117647,2.49747899 5.71428571,1.57983193 7.32773109,1.21344538 C7.08571429,0.924369748 7.09243697,0.494117647 7.36134454,0.218487395 C7.64705882,-0.0705882353 8.10756303,-0.0705882353 8.39327731,0.218487395 L9.16638655,1.00168067 C9.39831933,0.991596639 9.63361345,0.988235294 9.86890756,0.988235294 C10.097479,0.988235294 10.3226891,0.991596639 10.5445378,1.00168067 L11.3176471,0.218487395 C11.6033613,-0.0705882353 12.0672269,-0.0705882353 12.3529412,0.218487395 C12.6218487,0.490756303 12.6285714,0.917647059 12.389916,1.20672269 C14.0168067,1.56638655 15.2,2.48403361 15.2,4.69915966 C15.2,5.31764706 15.102521,5.84537815 14.9176471,6.29915966 L17.5764706,5.48235294 L17.4487395,3.08907563 C17.4285714,2.68235294 17.7378151,2.33277311 18.1411765,2.31260504 C18.5277311,2.28235294 18.8907563,2.60504202 18.9109244,3.01176471 L19.0689076,5.98319328 C19.0890756,6.32268908 18.8739496,6.63193277 18.5512605,6.72941176 L15.6840336,7.61008403 C16.2722689,8.64537815 16.6084034,10.0268908 16.7226891,11.9092437 L18.9747899,11.9092437 L18.9747899,11.9092437 Z M9.78487395,7.95630252 C10.1882353,7.95630252 10.5142857,8.28907563 10.5142857,8.69579832 L10.5142857,18.2151261 C10.5142857,18.6218487 10.1882353,18.9546218 9.78487395,18.9546218 C9.38151261,18.9546218 9.05546218,18.6218487 9.05546218,18.2151261 L9.05546218,8.69579832 C9.05210084,8.28907563 9.38151261,7.95630252 9.78487395,7.95630252 Z" id="Insecto-_2Regular"></path>
        </g>
    </g>
</svg>

<svg width="24" height="24" viewBox="0 0 24 24" xmlns="http://www.w3.org/2000/svg"><path d="M9.862 20.81c4.182 0 5.456-1.684 5.456-7.21 0-3.459-.535-5.345-1.785-6.296-.81-.618-2.01-.917-3.67-.917-1.675 0-2.885.305-3.695.934-1.237.958-1.761 2.834-1.761 6.279 0 5.526 1.274 7.21 5.455 7.21zm.01-18.343c-3.29 0-3.869.72-3.869 2.232 0 .4.05.696.128.928.975-.48 2.205-.716 3.731-.716 1.533 0 2.763.242 3.738.723.077-.229.138-.518.138-.931.003-1.516-.575-2.236-3.866-2.236zm9.103 9.442c.403 0 .73.333.73.74v1.973c0 .407-.327.74-.73.74a.735.735 0 01-.73-.74v-1.234h-1.469c0 .074.004.138.004.212 0 1.903-.151 3.543-.598 4.874l2.37.73a.74.74 0 01.517.746l-.158 2.971a.734.734 0 01-.73.7h-.04a.739.739 0 01-.692-.777l.127-2.394-2.023-.621c-.998 1.58-2.736 2.46-5.694 2.46-2.968 0-4.706-.887-5.701-2.474l-2.07.635.127 2.394a.734.734 0 01-.692.776h-.04a.739.739 0 01-.73-.699L.595 19.95a.738.738 0 01.518-.747l2.42-.742c-.44-1.328-.592-2.965-.592-4.861 0-.07.004-.145.004-.212H1.479v1.234c0 .407-.326.74-.73.74a.735.735 0 01-.729-.74v-1.973c0-.407.326-.74.73-.74h2.245c.094-1.543.356-3.065 1.035-4.282l-2.914-.894a.74.74 0 01-.518-.746l.158-2.972a.735.735 0 01.77-.699c.403.023.713.37.692.776l-.127 2.394 2.743.843c-.192-.46-.293-.995-.293-1.626 0-2.206 1.173-3.123 2.787-3.49A.742.742 0 017.36.218a.722.722 0 011.032 0l.773.784a16.221 16.221 0 011.379 0l.773-.784a.726.726 0 011.035 0c.269.273.276.7.037.989 1.627.36 2.81 1.277 2.81 3.492 0 .619-.097 1.146-.282 1.6l2.658-.817-.127-2.393a.737.737 0 01.692-.776c.387-.03.75.292.77.699l.158 2.971a.734.734 0 01-.518.746l-2.867.881c.588 1.035.924 2.417 1.039 4.3h2.252zm-9.19-3.953c.403 0 .73.333.73.74v9.52c0 .406-.327.739-.73.739a.735.735 0 01-.73-.74v-9.52a.733.733 0 01.73-.739z" fill="#5CB615" fill-rule="nonzero"/></svg>
